X: 1
T: the Maids of Currie
C: Helen Cruickshank
R: reel
B: RSCDS Childrens-7
Z: John Chambers <jc:trillian.mit.edu>
M: C|
L: 1/8
K: G
BA \
| "G"G2g2 "D"dedc \
| "G"BcGA "D"B2BA \
| "Em"G2g2 "Bm"dedB \
| "Am"A4 "D7"A2BA \
| "G"G2g2 "D"dedc |
| "Em"BABc "D7"d2ef \
| "G"gddd dedB \
| "D7"AGAB "G"G2 \
|| BA \
| "G"G2G2 "Em"GBAG \
| "A(m)"AGAB "D"A2 BA |
| "G"G2G2 "A7"GBAG \
| "D"A4 "D7"A2BA \
| "G"G2G2 "Em"GBAG \
| "A(m)"AGAB "D7"A2Bc \
| "G"dBcd "D7"BGAB | "G"G4 G2 |]
